storage/app/icons/phosphoricons/thin/kanban-thin.svg

<svg xmlns="http://www.w3.org/2000/svg" fill="currentColor" viewBox="0 0 256 256"><path d="M216 52H40a4 4 0 0 0-4 4v152a12 12 0 0 0 12 12h40a12 12 0 0 0 12-12v-52h56v20a12 12 0 0 0 12 12h40a12 12 0 0 0 12-12V56a4 4 0 0 0-4-4M92 208a4 4 0 0 1-4 4H48a4 4 0 0 1-4-4v-84h48Zm0-92H44V60h48Zm64 32h-56V60h56Zm56 28a4 4 0 0 1-4 4h-40a4 4 0 0 1-4-4v-52h48Zm0-60h-48V60h48Z"/></svg>

<svg xmlns="http://www.w3.org/2000/svg" viewBox="0 0 256 256" fill="currentColor"><path d="M216,52H40a4,4,0,0,0-4,4V208a12,12,0,0,0,12,12H88a12,12,0,0,0,12-12V156h56v20a12,12,0,0,0,12,12h40a12,12,0,0,0,12-12V56A4,4,0,0,0,216,52ZM92,208a4,4,0,0,1-4,4H48a4,4,0,0,1-4-4V124H92Zm0-92H44V60H92Zm64,32H100V60h56Zm56,28a4,4,0,0,1-4,4H168a4,4,0,0,1-4-4V124h48Zm0-60H164V60h48Z"/></svg>
